img/ellipse-1.svg

<svg fill="none" height="147" viewBox="0 0 214 147" width="214" xmlns="http://www.w3.org/2000/svg"><path d="m77.2541 78.3195c0-.8446-.6847-1.5293-1.5292-1.5293-.8446 0-1.5293.6847-1.5293 1.5293zm66.5229-66.5224v-1.5293zm-142.53749-1.0814c-.59721.5972-.59721 1.5655 0 2.1627l9.73209 9.7321c.5972.5972 1.5655.5972 2.1627 0s.5972-1.5655 0-2.1627l-8.65077-8.6507 8.65077-8.65079c.5972-.59719.5972-1.56547 0-2.16267-.5972-.597213-1.5655-.597213-2.1627 0zm142.53749 2.6106c36.772 0 66.522 29.131 66.522 64.9932h3.058c0-37.6165-31.185-68.0517-69.58-68.0517zm66.522 64.9932c0 35.8625-29.75 64.9935-66.523 64.9935v3.058c38.396 0 69.581-30.435 69.581-68.0515zm-66.523 64.9935c-36.772 0-66.5219-29.131-66.5219-64.9935h-3.0585c0 37.6165 31.1854 68.0515 69.5804 68.0515zm.001-133.0452h-141.45616l.00002 3.0585h141.45614z" fill="#5b57ca"/></svg>

<svg width="214" height="147" viewBox="0 0 214 147" fill="none" xmlns="http://www.w3.org/2000/svg">
<path d="M77.2541 78.3195C77.2541 77.4749 76.5694 76.7902 75.7249 76.7902C74.8803 76.7902 74.1956 77.4749 74.1956 78.3195L77.2541 78.3195ZM143.777 11.7971L143.777 10.2678L143.777 11.7971ZM1.23951 10.7157C0.6423 11.3129 0.6423 12.2812 1.23951 12.8784L10.9716 22.6105C11.5688 23.2077 12.5371 23.2077 13.1343 22.6105C13.7315 22.0133 13.7315 21.045 13.1343 20.4478L4.48353 11.7971L13.1343 3.14631C13.7315 2.54912 13.7315 1.58084 13.1343 0.98364C12.5371 0.386427 11.5688 0.386427 10.9716 0.98364L1.23951 10.7157ZM143.777 13.3263C180.549 13.3263 210.299 42.4573 210.299 78.3195L213.357 78.3195C213.357 40.703 182.172 10.2678 143.777 10.2678L143.777 13.3263ZM210.299 78.3195C210.299 114.182 180.549 143.313 143.776 143.313L143.776 146.371C182.172 146.371 213.357 115.936 213.357 78.3195L210.299 78.3195ZM143.776 143.313C107.004 143.313 77.2541 114.182 77.2541 78.3195L74.1956 78.3195C74.1956 115.936 105.381 146.371 143.776 146.371L143.776 143.313ZM143.777 10.2678L2.32084 10.2678L2.32086 13.3263L143.777 13.3263L143.777 10.2678Z" fill="#5B57CA"/>
</svg>
